style/icons/2dice.svg

<?xml version="1.0" encoding="UTF-8" standalone="no"?>
<svg
   viewBox="0 0 512 512"
   style="height: 512px; width: 512px;"
   version="1.1"
   id="svg42"
   sodipodi:docname="2dice.svg"
   inkscape:version="1.1.2 (0a00cf5339, 2022-02-04)"
   xmlns:inkscape="http://www.inkscape.org/namespaces/inkscape"
   xmlns:sodipodi="http://sodipodi.sourceforge.net/DTD/sodipodi-0.dtd"
   xmlns="http://www.w3.org/2000/svg"
   xmlns:svg="http://www.w3.org/2000/svg">
  <defs
     id="defs46" />
  <sodipodi:namedview
     id="namedview44"
     pagecolor="#ffffff"
     bordercolor="#666666"
     borderopacity="1.0"
     inkscape:pageshadow="2"
     inkscape:pageopacity="0.0"
     inkscape:pagecheckerboard="0"
     showgrid="false"
     inkscape:zoom="1.6992188"
     inkscape:cx="256"
     inkscape:cy="256"
     inkscape:window-width="1920"
     inkscape:window-height="1052"
     inkscape:window-x="0"
     inkscape:window-y="0"
     inkscape:window-maximized="1"
     inkscape:current-layer="svg42" />
  <g
     class=""
     id="g40"
     style="fill:#000000">
    <g
       id="g38"
       style="fill:#000000">
      <path
         d="M 138.798,35.342 28.73,114.268 124.507,143.363 235.812,56.273 138.798,35.343 Z"
         class=""
         fill="#4a4a4a"
         fill-opacity="1"
         id="path2"
         style="fill:#000000" />
      <path
         d="m 251.784,66.424 -118.047,89.96 51.07,131.102 8.534,-7.455 4.23,-15.708 c -5.896,-3.841 -9.654,-12.305 -9.08,-20.45 0.562,-7.894 5.06,-13.509 10.997,-13.727 1.194,-0.044 2.412,0.135 3.62,0.53 1.061,0.353 2.106,0.872 3.113,1.544 l 7.94,-29.48 c 0.096,-0.354 0.214,-0.701 0.353,-1.04 0.019,-0.043 0.038,-0.085 0.058,-0.128 0.097,-0.233 0.204,-0.461 0.32,-0.685 0.029,-0.051 0.059,-0.102 0.09,-0.153 0.115,-0.213 0.238,-0.422 0.37,-0.625 0.166,-0.25 0.344,-0.491 0.534,-0.723 0.022,-0.025 0.044,-0.049 0.066,-0.074 0.171,-0.206 0.351,-0.404 0.54,-0.594 0.207,-0.208 0.424,-0.406 0.65,-0.593 0.001,-0.001 0.003,-0.001 0.004,-0.002 0.15,-0.119 0.303,-0.233 0.46,-0.342 0.087,-0.067 0.176,-0.133 0.266,-0.197 0.164,-0.105 0.331,-0.205 0.502,-0.3 0.089,-0.054 0.179,-0.106 0.27,-0.157 0.145,-0.073 0.291,-0.143 0.44,-0.208 0.125,-0.062 0.252,-0.122 0.38,-0.178 0.144,-0.054 0.29,-0.105 0.437,-0.152 0.135,-0.051 0.272,-0.099 0.41,-0.143 0.134,-0.036 0.269,-0.07 0.404,-0.1 0.156,-0.042 0.312,-0.08 0.47,-0.114 0.169,-0.028 0.339,-0.052 0.51,-0.07 0.123,-0.019 0.246,-0.036 0.37,-0.05 0.003,0 0.007,0 0.01,0 0.003,-0.001 0.007,-0.002 0.01,-0.003 l 33.624,-2.873 c 1.568,-5.848 5.522,-9.592 10.326,-9.777 1.195,-0.044 2.413,0.134 3.622,0.53 3.26,1.077 6.292,3.683 8.527,7.327 L 291.227,190.203 251.785,66.42 Z"
         class=""
         fill="#4a4a4a"
         fill-opacity="1"
         id="path4"
         style="fill:#000000" />
      <path
         d="m 137.25,74.03 c 8.724,0.181 14.076,3.834 12.798,8.734 -1.482,5.688 -11.304,11.06 -21.938,11.998 -10.635,0.938 -18.054,-2.913 -16.57,-8.602 1.48,-5.689 11.303,-11.061 21.938,-12 1.284,-0.113 2.547,-0.156 3.77,-0.13 z"
         class=""
         fill="#4a4a4a"
         fill-opacity="1"
         id="path6"
         style="fill:#000000" />
      <path
         d="m 237.478,97.547 c 0.001,0 0.001,0 0.002,0 1.194,-0.044 2.412,0.135 3.62,0.53 7.38,2.415 12.803,12.237 12.112,21.94 -0.692,9.703 -7.236,15.612 -14.617,13.196 -7.381,-2.414 -12.805,-12.237 -12.114,-21.94 0.563,-7.894 5.061,-13.509 10.998,-13.726 z"
         class=""
         fill="#4a4a4a"
         fill-opacity="1"
         id="path8"
         style="fill:#000000" />
      <path
         d="m 24.22,131.71 46.992,114.124 94.236,40.38 -45.988,-125.57 -95.24,-28.935 z"
         class=""
         fill="#4a4a4a"
         fill-opacity="1"
         id="path10"
         style="fill:#000000" />
      <path
         d="m 172.106,149.14 c 1.195,-0.045 2.413,0.133 3.622,0.528 7.38,2.416 12.801,12.238 12.11,21.94 -0.691,9.703 -7.235,15.612 -14.616,13.197 -7.38,-2.415 -12.803,-12.237 -12.112,-21.94 0.562,-7.893 5.06,-13.508 10.996,-13.726 z"
         class=""
         fill="#4a4a4a"
         fill-opacity="1"
         id="path12"
         style="fill:#000000" />
      <path
         d="m 96.983,162.156 c 5.135,-0.28 12.464,6.238 16.955,15.078 4.83,9.505 4.639,18.229 -0.425,19.485 -5.065,1.254 -13.085,-5.434 -17.913,-14.939 -4.826,-9.501 -4.637,-18.221 0.424,-19.48 0.306,-0.077 0.626,-0.125 0.96,-0.144 z"
         class=""
         fill="#4a4a4a"
         fill-opacity="1"
         id="path14"
         style="fill:#000000" />
      <path
         d="m 360.376,202.366 -112.102,9.577 113.762,79.926 113.598,-16.956 -115.258,-72.55 z"
         class=""
         fill="#4a4a4a"
         fill-opacity="1"
         id="path16"
         style="fill:#000000" />
      <path
         d="m 70.82,212.022 c 5.135,-0.281 12.465,6.237 16.957,15.078 4.829,9.504 4.639,18.227 -0.425,19.484 -5.065,1.254 -13.085,-5.434 -17.913,-14.938 -4.828,-9.503 -4.638,-18.225 0.425,-19.482 0.306,-0.075 0.626,-0.122 0.96,-0.14 z"
         class=""
         fill="#4a4a4a"
         fill-opacity="1"
         id="path18"
         style="fill:#000000" />
      <path
         d="m 228.198,219.835 -41.538,154.188 115.616,99.454 47.147,-168.47 -121.225,-85.17 z"
         class=""
         fill="#4a4a4a"
         fill-opacity="1"
         id="path20"
         style="fill:#000000" />
      <path
         d="m 355.185,231.003 c 6.299,0.117 13.669,1.907 19.693,4.783 10.077,4.813 13.483,11.19 7.607,14.244 -5.875,3.055 -18.807,1.63 -28.886,-3.182 -10.078,-4.812 -13.485,-11.189 -7.61,-14.244 2.144,-1.114 5.349,-1.672 9.195,-1.6 z"
         class=""
         fill="#4a4a4a"
         fill-opacity="1"
         id="path22"
         style="fill:#000000" />
      <path
         d="M 487.78,291.3 366.9,309.343 320.077,476.659 436.374,444.889 Z"
         class=""
         fill="#4a4a4a"
         fill-opacity="1"
         id="path24"
         style="fill:#000000" />
      <path
         d="m 305.972,302.1 c 1.412,0.002 2.838,0.319 4.238,0.943 8.555,3.817 14.318,18.019 12.873,31.72 -1.446,13.7 -9.551,21.711 -18.105,17.893 -8.555,-3.816 -14.319,-18.018 -12.874,-31.72 1.176,-11.144 6.849,-18.848 13.868,-18.836 z"
         class=""
         fill="#4a4a4a"
         fill-opacity="1"
         id="path26"
         style="fill:#000000" />
      <path
         d="m 460.058,313.736 c 3.263,-0.097 5.967,1.359 7.673,4.13 4.173,6.781 1.408,19.512 -6.176,28.435 -7.584,8.922 -17.114,10.658 -21.287,3.878 -4.173,-6.781 -1.408,-19.511 6.175,-28.434 4.191,-4.93 9.205,-7.879 13.616,-8.008 z"
         class=""
         fill="#4a4a4a"
         fill-opacity="1"
         id="path28"
         style="fill:#000000" />
      <path
         d="m 391.362,324.4 c 3.262,-0.096 5.966,1.359 7.672,4.13 4.173,6.781 1.408,19.512 -6.176,28.435 -7.584,8.922 -17.114,10.658 -21.287,3.877 -4.172,-6.781 -1.407,-19.511 6.177,-28.434 4.191,-4.93 9.204,-7.879 13.615,-8.008 z"
         class=""
         fill="#4a4a4a"
         fill-opacity="1"
         id="path30"
         style="fill:#000000" />
      <path
         d="m 217.366,337.705 c 1.413,0.002 2.839,0.32 4.24,0.945 8.554,3.818 14.317,18.019 12.872,31.72 -1.445,13.701 -9.552,21.713 -18.106,17.894 -8.555,-3.817 -14.318,-18.019 -12.873,-31.72 1.175,-11.145 6.847,-18.851 13.866,-18.84 z"
         class=""
         fill="#4a4a4a"
         fill-opacity="1"
         id="path32"
         style="fill:#000000" />
      <path
         d="m 429.644,398.575 c 3.262,-0.096 5.965,1.36 7.67,4.13 4.173,6.78 1.409,19.51 -6.174,28.434 -7.584,8.922 -17.115,10.658 -21.287,3.876 -4.173,-6.781 -1.408,-19.511 6.175,-28.434 4.191,-4.93 9.205,-7.879 13.616,-8.008 z"
         class=""
         fill="#4a4a4a"
         fill-opacity="1"
         id="path34"
         style="fill:#000000" />
      <path
         d="m 359.312,418.063 c 3.262,-0.095 5.965,1.361 7.67,4.132 4.173,6.78 1.409,19.51 -6.174,28.434 -7.585,8.922 -17.115,10.657 -21.287,3.874 -4.172,-6.781 -1.407,-19.511 6.176,-28.434 4.191,-4.93 9.205,-7.878 13.616,-8.007 z"
         class="selected"
         fill="#4a4a4a"
         fill-opacity="1"
         id="path36"
         style="fill:#000000" />
    </g>
  </g>
</svg>

<svg xmlns="http://www.w3.org/2000/svg" viewBox="0 0 512 512" style="height: 512px; width: 512px;"><g class="" transform="translate(0,0)" style=""><g><path d="M138.798 35.342L28.73 114.268L124.507 143.363L235.812 56.273L138.798 35.343Z" class="" fill="#4a4a4a" fill-opacity="1"></path><path d="M251.784 66.424L133.737 156.384L184.807 287.486L193.341 280.031L197.571 264.323C191.675 260.482 187.917 252.018 188.491 243.873C189.053 235.979 193.551 230.364 199.488 230.146C200.682 230.102 201.9 230.281 203.108 230.676C204.169 231.029 205.214 231.548 206.221 232.22L214.161 202.74C214.257 202.386 214.375 202.039 214.514 201.7C214.533 201.657 214.552 201.615 214.572 201.572C214.669 201.339 214.776 201.111 214.892 200.887C214.921 200.836 214.951 200.785 214.982 200.734C215.097 200.521 215.22 200.312 215.352 200.109C215.518 199.859 215.696 199.618 215.886 199.386C215.908 199.361 215.93 199.337 215.952 199.312C216.123 199.106 216.303 198.908 216.492 198.718C216.699 198.51 216.916 198.312 217.142 198.125C217.143 198.124 217.145 198.124 217.146 198.123C217.296 198.004 217.449 197.89 217.606 197.781C217.693 197.714 217.782 197.648 217.872 197.584C218.036 197.479 218.203 197.379 218.374 197.284C218.463 197.23 218.553 197.178 218.644 197.127C218.789 197.054 218.935 196.984 219.084 196.919C219.209 196.857 219.336 196.797 219.464 196.741C219.608 196.687 219.754 196.636 219.901 196.589C220.036 196.538 220.173 196.49 220.311 196.446C220.445 196.41 220.58 196.376 220.715 196.346C220.871 196.304 221.027 196.266 221.185 196.232C221.354 196.204 221.524 196.18 221.695 196.162C221.818 196.143 221.941 196.126 222.065 196.112C222.068 196.112 222.072 196.112 222.075 196.112C222.078 196.111 222.082 196.11 222.085 196.109L255.709 193.236C257.277 187.388 261.231 183.644 266.035 183.459C267.23 183.415 268.448 183.593 269.657 183.989C272.917 185.066 275.949 187.672 278.184 191.316L291.227 190.203L251.785 66.42Z" class="" fill="#4a4a4a" fill-opacity="1"></path><path d="M137.25 74.03C145.974 74.211 151.326 77.864 150.048 82.764C148.566 88.452 138.744 93.824 128.11 94.762C117.475 95.7 110.056 91.849 111.54 86.16C113.02 80.471 122.843 75.099 133.478 74.16C134.762 74.047 136.025 74.004 137.248 74.03Z" class="" fill="#4a4a4a" fill-opacity="1"></path><path d="M237.478 97.547C237.479 97.547 237.479 97.547 237.48 97.547C238.674 97.503 239.892 97.682 241.1 98.077C248.48 100.492 253.903 110.314 253.212 120.017C252.52 129.72 245.976 135.629 238.595 133.213C231.214 130.799 225.79 120.976 226.481 111.273C227.044 103.379 231.542 97.764 237.479 97.547Z" class="" fill="#4a4a4a" fill-opacity="1"></path><path d="M24.22 131.71L71.212 245.834L165.448 286.214L119.46 160.644L24.22 131.709Z" class="" fill="#4a4a4a" fill-opacity="1"></path><path d="M172.106 149.14C173.301 149.095 174.519 149.273 175.728 149.668C183.108 152.084 188.529 161.906 187.838 171.608C187.147 181.311 180.603 187.22 173.222 184.805C165.842 182.39 160.419 172.568 161.11 162.865C161.672 154.972 166.17 149.357 172.106 149.139Z" class="" fill="#4a4a4a" fill-opacity="1"></path><path d="M96.983 162.156C102.118 161.876 109.447 168.394 113.938 177.234C118.768 186.739 118.577 195.463 113.513 196.719C108.448 197.973 100.428 191.285 95.6 181.78C90.774 172.279 90.963 163.559 96.024 162.3C96.33 162.223 96.65 162.175 96.984 162.156Z" class="" fill="#4a4a4a" fill-opacity="1"></path><path d="M360.376 202.366L248.274 211.943L362.036 291.869L475.634 274.913L360.376 202.363Z" class="" fill="#4a4a4a" fill-opacity="1"></path><path d="M70.82 212.022C75.955 211.741 83.285 218.259 87.777 227.1C92.606 236.604 92.416 245.327 87.352 246.584C82.287 247.838 74.267 241.15 69.439 231.646C64.611 222.143 64.801 213.421 69.864 212.164C70.17 212.089 70.49 212.042 70.824 212.024Z" class="" fill="#4a4a4a" fill-opacity="1"></path><path d="M228.198 219.835L186.66 374.023L302.276 473.477L349.423 305.007L228.198 219.837Z" class="" fill="#4a4a4a" fill-opacity="1"></path><path d="M355.185 231.003C361.484 231.12 368.854 232.91 374.878 235.786C384.955 240.599 388.361 246.976 382.485 250.03C376.61 253.085 363.678 251.66 353.599 246.848C343.521 242.036 340.114 235.659 345.989 232.604C348.133 231.49 351.338 230.932 355.184 231.004Z" class="" fill="#4a4a4a" fill-opacity="1"></path><path d="M487.78 291.3L366.9 309.343L320.077 476.659L436.374 444.889L487.78 291.3Z" class="" fill="#4a4a4a" fill-opacity="1"></path><path d="M305.972 302.1C307.384 302.102 308.81 302.419 310.21 303.043C318.765 306.86 324.528 321.062 323.083 334.763C321.637 348.463 313.532 356.474 304.978 352.656C296.423 348.84 290.659 334.638 292.104 320.936C293.28 309.792 298.953 302.088 305.972 302.1Z" class="" fill="#4a4a4a" fill-opacity="1"></path><path d="M460.058 313.736C463.321 313.639 466.025 315.095 467.731 317.866C471.904 324.647 469.139 337.378 461.555 346.301C453.971 355.223 444.441 356.959 440.268 350.179C436.095 343.398 438.86 330.668 446.443 321.745C450.634 316.815 455.648 313.866 460.059 313.737Z" class="" fill="#4a4a4a" fill-opacity="1"></path><path d="M391.362 324.4C394.624 324.304 397.328 325.759 399.034 328.53C403.207 335.311 400.442 348.042 392.858 356.965C385.274 365.887 375.744 367.623 371.571 360.842C367.399 354.061 370.164 341.331 377.748 332.408C381.939 327.478 386.952 324.529 391.363 324.4Z" class="" fill="#4a4a4a" fill-opacity="1"></path><path d="M217.366 337.705C218.779 337.707 220.205 338.025 221.606 338.65C230.16 342.468 235.923 356.669 234.478 370.37C233.033 384.071 224.926 392.083 216.372 388.264C207.817 384.447 202.054 370.245 203.499 356.544C204.674 345.399 210.346 337.693 217.365 337.704Z" class="" fill="#4a4a4a" fill-opacity="1"></path><path d="M429.644 398.575C432.906 398.479 435.609 399.935 437.314 402.705C441.487 409.485 438.723 422.215 431.14 431.139C423.556 440.061 414.025 441.797 409.853 435.015C405.68 428.234 408.445 415.504 416.028 406.581C420.219 401.651 425.233 398.702 429.644 398.573Z" class="" fill="#4a4a4a" fill-opacity="1"></path><path d="M359.312 418.063C362.574 417.968 365.277 419.424 366.982 422.195C371.155 428.975 368.391 441.705 360.808 450.629C353.223 459.551 343.693 461.286 339.521 454.503C335.349 447.722 338.114 434.992 345.697 426.069C349.888 421.139 354.902 418.191 359.313 418.062Z" class="selected" fill="#4a4a4a" fill-opacity="1"></path></g></g></svg>
